symbolic/24x24/apps/sftpclient.svg

<svg xmlns="http://www.w3.org/2000/svg" width="24" height="24" version="1">
 <path style="opacity:0.2" d="m 8.5,6.5 a 5,5 0 0 0 -5,5 5,5 0 0 0 0.025391,0.459961 A 4.5,4.5 0 0 0 1,16 4.5,4.5 0 0 0 5.5,20.5 h 11 a 4,4 0 0 0 4,-4 A 4,4 0 0 0 17.253906,12.574219 2.5,2.5 0 0 0 17.5,11.5 2.5,2.5 0 0 0 15,9 2.5,2.5 0 0 0 13.19043,9.779297 5,5 0 0 0 8.5,6.5 Z"/>
 <path style="fill:#27adeb" d="M 16.75 3 A 4.25 4.25 0 0 0 12.820312 5.640625 A 2.25 2.25 0 0 0 11.25 5 A 2.25 2.25 0 0 0 9 7.25 A 2.25 2.25 0 0 0 11.25 9.5 A 2.25 2.25 0 0 0 12.820312 8.8613281 A 4.25 4.25 0 0 0 15.501953 11.3125 A 3.75 3.75 0 0 0 19.25 15 A 3.75 3.75 0 0 0 23 11.25 A 3.75 3.75 0 0 0 20.943359 7.9082031 A 4.25 4.25 0 0 0 21 7.25 A 4.25 4.25 0 0 0 16.75 3 z"/>
 <path style="opacity:0.2;fill:#ffffff" d="M 16.75 3 A 4.25 4.25 0 0 0 12.820312 5.640625 A 2.25 2.25 0 0 0 11.25 5 A 2.25 2.25 0 0 0 9 7.25 A 2.25 2.25 0 0 0 9.015625 7.5058594 A 2.25 2.25 0 0 1 11.25 5.5 A 2.25 2.25 0 0 1 12.820312 6.140625 A 4.25 4.25 0 0 1 16.75 3.5 A 4.25 4.25 0 0 1 20.988281 7.5195312 A 4.25 4.25 0 0 0 21 7.25 A 4.25 4.25 0 0 0 16.75 3 z M 20.994141 7.9375 A 4.25 4.25 0 0 1 20.943359 8.4082031 A 3.75 3.75 0 0 1 22.988281 11.529297 A 3.75 3.75 0 0 0 23 11.25 A 3.75 3.75 0 0 0 20.994141 7.9375 z"/>
 <path style="fill:#1f83b3" d="M 8.5 6 A 5 5 0 0 0 3.5 11 A 5 5 0 0 0 3.5253906 11.460938 A 4.5 4.5 0 0 0 1 15.5 A 4.5 4.5 0 0 0 5.5 20 L 16.5 20 A 4 4 0 0 0 20.5 16 A 4 4 0 0 0 16.941406 12.025391 A 2.5 2.5 0 0 0 17 11.5 A 2.5 2.5 0 0 0 14.5 9 A 2.5 2.5 0 0 0 13.216797 9.3574219 A 5 5 0 0 0 8.5 6 z"/>
 <rect style="fill:#58e1f1" width="7" height="2" x="16" y="14" rx=".5" ry=".5"/>
 <circle style="fill:#3f3f3f" cx="22" cy="15" r=".5"/>
 <rect style="fill:#58e1f1" width="7" height="2" x="16" y="16" rx=".5" ry=".5"/>
 <circle style="fill:#3f3f3f" cx="22" cy="17" r=".5"/>
 <rect style="fill:#58e1f1" width="7" height="2" x="16" y="18" rx=".5" ry=".5"/>
 <circle style="fill:#3f3f3f" cx="22" cy="19" r=".5"/>
 <path style="opacity:0.2" d="m 6,12.5 v 4 h 1 v -1 h 1 v -1 H 7 v -1 h 1 v -1 z m 3,0 v 1 h 1 v 3 h 1 v -3 h 1 v -1 z m 4,0 v 4 h 1 v -1 c 0,1.5e-4 1.999989,0 2,-1.5 -1.1e-5,-1.5 -2,-1.5 -2,-1.5 z m -8.9550781,1 c -0.31562,0 -0.5697495,0.0669 -0.7597657,0.201172 C 3.09514,13.835448 3,14.036136 3,14.304688 c 0,0.162544 0.024643,0.298663 0.076172,0.408203 0.05153,0.106007 0.132001,0.199605 0.2382812,0.277343 0.1062802,0.07421 0.2400454,0.150777 0.4042969,0.228516 0.170692,0.07774 0.2964391,0.139983 0.3769531,0.189453 0.080516,0.04947 0.1317534,0.09394 0.1542969,0.132813 0.025765,0.03887 0.041016,0.08335 0.041016,0.132812 0,0.0742 -0.030605,0.133752 -0.091797,0.179688 -0.057971,0.04593 -0.1590743,0.06836 -0.3007813,0.06836 -0.1256035,0 -0.2693425,-0.02242 -0.4335937,-0.06836 -0.1642533,-0.04594 -0.3192305,-0.103157 -0.4609376,-0.173828 v 0.65039 c 0.1320452,0.06007 0.2663924,0.10417 0.3984376,0.128906 C 3.5343891,16.487253 3.6914255,16.5 3.875,16.5 4.2485915,16.5 4.5280482,16.423055 4.7148438,16.267578 4.9048592,16.108567 5,15.881177 5,15.587891 5,15.414746 4.9693966,15.275929 4.9082031,15.169922 4.8502321,15.060382 4.7657505,14.96911 4.65625,14.898438 4.546749,14.824234 4.416994,14.754638 4.265625,14.6875 4.111036,14.616829 3.9945775,14.559981 3.9140625,14.517578 c -0.077293,-0.0424 -0.1311692,-0.08186 -0.1601563,-0.117187 -0.025763,-0.03887 -0.039063,-0.08102 -0.039062,-0.126953 0,-0.12721 0.1057993,-0.189454 0.3183593,-0.189454 0.119163,0 0.2375737,0.02009 0.3535157,0.0625 0.1159414,0.03887 0.238363,0.08837 0.3671874,0.148438 l 0.2167969,-0.56836 C 4.8128936,13.645291 4.6598672,13.58807 4.5117188,13.552734 4.3635708,13.517398 4.2091729,13.5 4.0449219,13.5 Z M 14,13.5 h 0.365234 C 14.788514,13.5 15,13.66319 15,13.990234 15,14.169479 14.93287,14.301053 14.798828,14.382812 14.668317,14.46143 14.491374,14.5 14.265625,14.5 H 14 Z"/>
 <path style="fill:#ffffff" d="m 6,12 v 4 H 7 V 15 H 8 V 14 H 7 v -1 h 1 v -1 z m 3,0 v 1 h 1 v 3 h 1 v -3 h 1 v -1 z m 4,0 v 4 h 1 v -1 c 0,1.5e-4 1.999989,0 2,-1.5 C 15.999989,12 14,12 14,12 Z M 4.0449219,13 C 3.7293019,13 3.4751724,13.0669 3.2851562,13.201172 3.09514,13.335448 3,13.536136 3,13.804688 c 0,0.162544 0.024643,0.298663 0.076172,0.408203 0.05153,0.106007 0.132001,0.199605 0.2382812,0.277343 0.1062802,0.07421 0.2400454,0.150777 0.4042969,0.228516 0.170692,0.07774 0.2964391,0.139983 0.3769531,0.189453 0.080516,0.04947 0.1317534,0.09394 0.1542969,0.132813 0.025765,0.03887 0.041016,0.08335 0.041016,0.132812 0,0.0742 -0.030605,0.133752 -0.091797,0.179688 -0.057971,0.04593 -0.1590743,0.06836 -0.3007813,0.06836 -0.1256035,0 -0.2693425,-0.02242 -0.4335937,-0.06836 -0.1642533,-0.04594 -0.3192305,-0.103157 -0.4609376,-0.173828 v 0.65039 c 0.1320452,0.06007 0.2663924,0.10417 0.3984376,0.128906 C 3.5343891,15.987253 3.6914255,16 3.875,16 4.2485915,16 4.5280482,15.923055 4.7148438,15.767578 4.9048592,15.608567 5,15.381177 5,15.087891 5,14.914746 4.9693966,14.775929 4.9082031,14.669922 4.8502321,14.560382 4.7657505,14.46911 4.65625,14.398438 4.546749,14.324234 4.416994,14.254638 4.265625,14.1875 4.111036,14.116829 3.9945775,14.059981 3.9140625,14.017578 c -0.077293,-0.0424 -0.1311692,-0.08186 -0.1601563,-0.117187 -0.025763,-0.03887 -0.039063,-0.08102 -0.039062,-0.126953 0,-0.12721 0.1057993,-0.189454 0.3183593,-0.189454 0.119163,0 0.2375737,0.02009 0.3535157,0.0625 0.1159414,0.03887 0.238363,0.08837 0.3671874,0.148438 l 0.2167969,-0.56836 C 4.8128936,13.145291 4.6598672,13.08807 4.5117188,13.052734 4.3635708,13.017398 4.2091729,13 4.0449219,13 Z M 14,13 h 0.365234 C 14.788514,13 15,13.16319 15,13.490234 15,13.669479 14.93287,13.801053 14.798828,13.882812 14.668317,13.96143 14.491374,14 14.265625,14 H 14 Z"/>
 <path style="opacity:0.2" d="M 16,15.5 V 16 c 0,0.277 0.223,0.5 0.5,0.5 h 6 c 0.277,0 0.5,-0.223 0.5,-0.5 v -0.5 c 0,0.277 -0.223,0.5 -0.5,0.5 h -6 C 16.223,16 16,15.777 16,15.5 Z m 0,2 V 18 c 0,0.277 0.223,0.5 0.5,0.5 h 6 c 0.277,0 0.5,-0.223 0.5,-0.5 v -0.5 c 0,0.277 -0.223,0.5 -0.5,0.5 h -6 C 16.223,18 16,17.777 16,17.5 Z m 0,2 V 20 c 0,0.277 0.223,0.5 0.5,0.5 h 6 c 0.277,0 0.5,-0.223 0.5,-0.5 v -0.5 c 0,0.277 -0.223,0.5 -0.5,0.5 h -6 C 16.223,20 16,19.777 16,19.5 Z"/>
 <path style="opacity:0.2;fill:#ffffff" d="M 16.5,14 C 16.223,14 16,14.223 16,14.5 V 15 c 0,-0.277 0.223,-0.5 0.5,-0.5 h 6 c 0.277,0 0.5,0.223 0.5,0.5 V 14.5 C 23,14.223 22.777,14 22.5,14 Z"/>
</svg>

<svg xmlns="http://www.w3.org/2000/svg" width="24" height="24" version="1"><path style="opacity:.2" d="M8.5 6.5a5 5 0 0 0-5 5 5 5 0 0 0 .025.46A4.5 4.5 0 0 0 1 16a4.5 4.5 0 0 0 4.5 4.5h11a4 4 0 0 0 4-4 4 4 0 0 0-3.246-3.926A2.5 2.5 0 0 0 17.5 11.5 2.5 2.5 0 0 0 15 9a2.5 2.5 0 0 0-1.81.78A5 5 0 0 0 8.5 6.5z"/><path style="fill:#27adeb" d="M16.75 3a4.25 4.25 0 0 0-3.93 2.64A2.25 2.25 0 0 0 11.25 5 2.25 2.25 0 0 0 9 7.25a2.25 2.25 0 0 0 2.25 2.25 2.25 2.25 0 0 0 1.57-.639 4.25 4.25 0 0 0 2.682 2.451A3.75 3.75 0 0 0 19.25 15 3.75 3.75 0 0 0 23 11.25a3.75 3.75 0 0 0-2.057-3.342A4.25 4.25 0 0 0 21 7.25 4.25 4.25 0 0 0 16.75 3z"/><path style="opacity:.2;fill:#fff" d="M16.75 3a4.25 4.25 0 0 0-3.93 2.64A2.25 2.25 0 0 0 11.25 5 2.25 2.25 0 0 0 9 7.25a2.25 2.25 0 0 0 .016.256A2.25 2.25 0 0 1 11.25 5.5a2.25 2.25 0 0 1 1.57.64 4.25 4.25 0 0 1 3.93-2.64 4.25 4.25 0 0 1 4.238 4.02A4.25 4.25 0 0 0 21 7.25 4.25 4.25 0 0 0 16.75 3zm4.244 4.938a4.25 4.25 0 0 1-.05.47 3.75 3.75 0 0 1 2.044 3.121A3.75 3.75 0 0 0 23 11.25a3.75 3.75 0 0 0-2.006-3.313z"/><path style="fill:#1f83b3" d="M8.5 6a5 5 0 0 0-5 5 5 5 0 0 0 .025.46A4.5 4.5 0 0 0 1 15.5 4.5 4.5 0 0 0 5.5 20h11a4 4 0 0 0 4-4 4 4 0 0 0-3.559-3.975A2.5 2.5 0 0 0 17 11.5 2.5 2.5 0 0 0 14.5 9a2.5 2.5 0 0 0-1.283.357A5 5 0 0 0 8.5 6z"/><rect style="fill:#58e1f1" width="7" height="2" x="16" y="14" rx=".5" ry=".5"/><circle style="fill:#3f3f3f" cx="22" cy="15" r=".5"/><rect style="fill:#58e1f1" width="7" height="2" x="16" y="16" rx=".5" ry=".5"/><circle style="fill:#3f3f3f" cx="22" cy="17" r=".5"/><rect style="fill:#58e1f1" width="7" height="2" x="16" y="18" rx=".5" ry=".5"/><circle style="fill:#3f3f3f" cx="22" cy="19" r=".5"/><path style="opacity:.2" d="M6 12.5v4h1v-1h1v-1H7v-1h1v-1zm3 0v1h1v3h1v-3h1v-1zm4 0v4h1v-1s2 0 2-1.5-2-1.5-2-1.5zm-8.955 1c-.316 0-.57.067-.76.201-.19.134-.285.335-.285.604 0 .162.025.298.076.408.052.106.132.2.238.277.107.074.24.151.405.229.17.077.296.14.377.19.08.049.131.093.154.132a.237.237 0 0 1 .041.133c0 .074-.03.134-.092.18-.058.045-.159.068-.3.068a1.63 1.63 0 0 1-.434-.068 2.606 2.606 0 0 1-.461-.174v.65c.132.06.266.104.398.129.132.028.29.041.473.041.374 0 .653-.077.84-.232.19-.16.285-.387.285-.68a.83.83 0 0 0-.092-.418.724.724 0 0 0-.252-.272 2.513 2.513 0 0 0-.39-.21 7.32 7.32 0 0 1-.352-.17.565.565 0 0 1-.16-.118.225.225 0 0 1-.04-.127c0-.127.107-.189.32-.189.118 0 .237.02.353.062.116.04.238.089.367.149l.217-.568a2.035 2.035 0 0 0-.46-.174 1.999 1.999 0 0 0-.466-.053zm9.955 0h.365c.424 0 .635.163.635.49 0 .18-.067.311-.201.393-.13.078-.308.117-.533.117H14z"/><path style="fill:#fff" d="M6 12v4h1v-1h1v-1H7v-1h1v-1zm3 0v1h1v3h1v-3h1v-1zm4 0v4h1v-1s2 0 2-1.5-2-1.5-2-1.5zm-8.955 1c-.316 0-.57.067-.76.201-.19.134-.285.335-.285.604 0 .162.025.298.076.408.052.106.132.2.238.277.107.074.24.151.405.229.17.077.296.14.377.19.08.049.131.093.154.132a.237.237 0 0 1 .041.133c0 .074-.03.134-.092.18-.058.045-.159.068-.3.068a1.63 1.63 0 0 1-.434-.068 2.606 2.606 0 0 1-.461-.174v.65c.132.06.266.104.398.129.132.028.29.041.473.041.374 0 .653-.077.84-.232.19-.16.285-.387.285-.68a.83.83 0 0 0-.092-.418.724.724 0 0 0-.252-.272 2.513 2.513 0 0 0-.39-.21 7.32 7.32 0 0 1-.352-.17.565.565 0 0 1-.16-.118.225.225 0 0 1-.04-.127c0-.127.107-.189.32-.189.118 0 .237.02.353.062.116.04.238.089.367.149l.217-.568a2.035 2.035 0 0 0-.46-.174A1.999 1.999 0 0 0 4.046 13zM14 13h.365c.424 0 .635.163.635.49 0 .18-.067.311-.201.393-.13.078-.308.117-.533.117H14z"/><path style="opacity:.2" d="M16 15.5v.5c0 .277.223.5.5.5h6c.277 0 .5-.223.5-.5v-.5c0 .277-.223.5-.5.5h-6a.499.499 0 0 1-.5-.5zm0 2v.5c0 .277.223.5.5.5h6c.277 0 .5-.223.5-.5v-.5c0 .277-.223.5-.5.5h-6a.499.499 0 0 1-.5-.5zm0 2v.5c0 .277.223.5.5.5h6c.277 0 .5-.223.5-.5v-.5c0 .277-.223.5-.5.5h-6a.499.499 0 0 1-.5-.5z"/><path style="opacity:.2;fill:#fff" d="M16.5 14c-.277 0-.5.223-.5.5v.5c0-.277.223-.5.5-.5h6c.277 0 .5.223.5.5v-.5c0-.277-.223-.5-.5-.5z"/></svg>
